X:2520
T:Polska från Hälsingland
T:Svenska Folkdansar H3 nr 32
O:Hälsingland
B:Traditioner av Svenska Folkdansar Häfte 3, nr 32
R:Polska
Z:Nils L
M:3/4
L:1/8
K:A
E2  A2 B2 | Tc2 d2 c2 | (B2 A)d cB | AG AE CE |
A,2 A2 B2 | Tc2 d2 c2 | (B2 A)d cB | AG A2 A2 ::
c2 A2 E2 | (^d3e/)f/ e2 | c2 A2 E2 | (^d>f) e2 z2 | (=d2 c2 f2 | 
e2 d2 c2) |  (d2 c2 f2 | e2 d2 c2) | B2 EF GE | AA EC A,2 :|
(:musicend:)
(:music:)
